X:23
T:Piper Peter Morrison
R:strathspey
C:Theresa Morrison
D:Lake Bras D'Or
Z:Paul Stewart Cranford (P.S.C.), <http://www.cranfordpub.com>
Q:288
L:1/8
M:C
K:F
d|c<AG>A G>FD<F|C>DF>G A>GA<f|c<AG>A G>FD<d|[1c<Fc>A G2 G:|[2c<Fc>A F2 F||
||c|f<ag>f d>cd<f|g>fg<a g>fd>g|f<ag>f d>fg<a|g>fa<f g2 g z|
a<fd>f c>fA>f|B>fA>f G>AB>d|c<AG>A G>FDd|c<Fc>A F2 F|]
% if none of this makes sense, go to http://www.cranfordpub.com/tunes/abcs
